src/assets/vector2.svg

<svg width="142" height="102" viewBox="0 0 142 102" fill="none" xmlns="http://www.w3.org/2000/svg">
<g filter="url(#filter0_d_186_25264)">
<path fill-rule="evenodd" clip-rule="evenodd" d="M49.5489 2.37142V4.74283H69.8154H90.0819V2.37142V0H69.8154H49.5489V2.37142ZM94.7889 2.37142V4.74283H98.4827H102.176L102.007 3.8907C101.526 1.46606 99.4649 0 96.5368 0H94.7889V2.37142ZM17.5147 2.76191C12.1887 3.94525 8.03656 7.21068 5.72017 12.0376C1.74349 20.3246 5.22253 30.3201 13.4847 34.3457C16.4277 35.7797 18.6282 36.2186 21.9336 36.0305C26.1245 35.7923 29.3519 34.316 32.4353 31.2265C37.7614 25.8903 39.0119 18.365 35.6809 11.695C32.2988 4.9228 24.671 1.17174 17.5147 2.76191ZM17.5056 7.76586C13.4994 9.04168 10.3545 12.3058 9.2889 16.2937C9.12259 16.9153 8.98687 18.3147 8.98687 19.4037C8.98687 26.6307 15.4625 32.2088 22.5487 31.0858C32.217 29.5534 36.0239 17.7527 29.1004 10.7765C27.7484 9.41452 25.9684 8.36925 23.9475 7.75137C22.4765 7.30132 18.9386 7.30949 17.5056 7.76586ZM54.433 9.65877C54.3357 9.75679 54.2559 10.8856 54.2559 12.1672V14.4973L66.2197 14.4287L78.1835 14.3602V11.9888V9.61741L66.3968 9.5489C59.9138 9.51122 54.5303 9.56049 54.433 9.65877ZM18.3623 12.4813C15.4954 13.5587 13.7256 16.1396 13.7313 19.2348C13.7399 23.8614 17.6868 27.1888 22.1564 26.3375C24.8944 25.8158 27.3151 23.3576 27.7939 20.6129C28.3478 17.4375 26.8352 14.2978 24.0523 12.8462C22.7189 12.1509 19.7482 11.9601 18.3623 12.4813ZM42.1232 21.3928C41.6664 26.9156 38.6147 32.5872 34.1971 36.1243C31.2201 38.5081 28.4602 39.7291 23.8562 40.6995C23.1881 40.8402 23.1371 40.9441 23.1371 42.1635V43.4759H72.1773C123.787 43.4759 122.478 43.5039 123.196 42.383C123.321 42.187 123.484 39.2403 123.558 35.8347C123.71 28.8662 123.881 28.1242 125.76 26.2861C127.553 24.5315 128.118 24.3824 133.327 24.2901L138 24.2071L137.848 23.2649C137.621 21.8536 136.556 20.4276 135.257 19.7937L134.111 19.2348H88.2064H42.3021L42.1232 21.3928ZM51.0735 24.7752C49.364 25.6851 48.3925 27.7337 48.7484 29.6777C48.8512 30.2382 49.6585 32.1195 50.5426 33.8585C51.7881 36.3079 52.3684 37.1688 53.1184 37.6792L54.0865 38.3379L71.8598 38.4093C89.4969 38.4799 89.6418 38.4762 90.7764 37.9226C92.3235 37.168 93.3261 35.4672 93.2989 33.6435C93.2829 32.5817 92.9665 31.6942 91.6635 29.0577C90.226 26.1491 89.9145 25.7035 88.8369 25.015L87.6258 24.2411L69.8295 24.2527C52.7382 24.2641 51.9953 24.2846 51.0735 24.7752ZM95.6924 24.888C94.5792 26.0094 94.795 26.8942 97.5211 32.3822C100.097 37.5685 100.785 38.4696 102.166 38.4696C103.134 38.4696 104.465 37.1975 104.465 36.2726C104.465 35.3296 99.3979 25.1768 98.6717 24.6643C97.7685 24.0269 96.4484 24.126 95.6924 24.888ZM105.142 25.0519C104.769 25.4977 104.465 26.1393 104.465 26.4776C104.465 27.3005 109.266 37.0075 110.077 37.8251C111.456 39.2145 113.879 38.2046 113.879 36.24C113.879 35.0761 108.92 24.9331 108.147 24.5165C107.117 23.9608 105.866 24.1837 105.142 25.0519ZM53.4714 29.1118C53.4714 29.1821 53.9683 30.2492 54.5758 31.4832L55.6801 33.7268H72.0965C81.1254 33.7268 88.5129 33.6694 88.5129 33.599C88.5129 33.5286 88.016 32.4615 87.4085 31.2276L86.3042 28.984H69.8878C60.8589 28.984 53.4714 29.0414 53.4714 29.1118ZM129.182 29.6132C128.349 30.4529 128.275 31.0592 128.198 37.7714L128.131 43.5284L129.899 43.4275C131.404 43.3416 131.773 43.2196 132.383 42.6048L133.099 41.8831V36.0695V30.2558L132.365 29.6198C131.385 28.7703 130.022 28.7674 129.182 29.6132ZM23.0403 48.8116C22.9538 49.1378 22.8811 49.8935 22.8792 50.4914C22.8724 52.5403 21.7786 58.1002 20.7765 61.1793C19.5869 64.8345 17.9399 68.2665 15.8822 71.378C13.9821 74.2514 9.0593 79.239 6.1812 81.207L4 82.6981L5.70892 84.42C10.0271 88.771 16.3414 92.2902 22.2461 93.6367L23.8395 94L25.4072 91.9911C33.8271 81.201 39.0307 66.5943 39.7817 51.6426L39.9538 48.2188H36.4225H32.8914L32.7201 51.0513C32.0313 62.4423 27.0622 74.605 19.1685 84.2206C16.9891 86.8755 16.0009 87.2554 14.5276 86.0062C13.9405 85.5085 13.7232 85.0988 13.7243 84.4912C13.7258 83.5147 14.0629 82.9555 16.3168 80.1868C20.9616 74.4814 24.7594 66.8339 26.5005 59.6806C27.1127 57.1661 27.7563 53.0818 27.9848 50.2608L28.1503 48.2188H25.6742C23.3274 48.2188 23.1899 48.2499 23.0403 48.8116ZM44.4914 51.9735C44.3986 54.0385 44.2474 56.2339 44.1551 56.8518L43.9875 57.975L52.7175 57.9057L61.4473 57.8362L61.5187 53.0275L61.5898 48.2188H56.0467H50.5036L51.0826 48.8398C51.4011 49.1813 51.7303 49.8872 51.8143 50.4084C51.945 51.2205 51.8527 51.4713 51.1702 52.159C50.312 53.0235 49.3237 53.185 48.3284 52.623C47.5855 52.2033 46.2911 50.5441 45.7027 49.2572C44.8863 47.4715 44.6724 47.9513 44.4914 51.9735ZM66.2851 53.0768V57.9347L70.9268 58.0238C73.4796 58.0725 75.7494 58.2016 75.9704 58.3105C76.2834 58.4643 76.6003 58.0375 77.399 56.387C77.9636 55.2202 78.6848 54.02 79.002 53.7199C79.8527 52.9147 81.2988 52.9508 82.1395 53.7979C83.1871 54.8535 83.0362 55.8848 81.3466 59.2129C80.0765 61.715 79.9136 62.2017 80.1244 62.8662C80.2583 63.2881 80.4397 64.1789 80.5279 64.8461C80.7007 66.1525 81.3791 67.0974 82.3095 67.3274C82.629 67.4064 93.0696 67.4375 105.511 67.3964L128.131 67.3218L129.581 66.6365C132.041 65.4737 133.899 63.4633 134.716 61.0784C135.004 60.2368 137.414 48.8256 137.414 48.3012C137.414 48.2559 134.264 48.2188 130.415 48.2188H123.416L123.42 50.3926C123.424 52.691 122.92 54.1471 121.634 55.5557C119.792 57.5732 116.255 58.2954 113.68 57.1796C112.935 56.8568 112.198 56.437 112.041 56.2468C111.812 55.9683 111.498 56.0626 110.433 56.73C109.359 57.4025 108.767 57.5785 107.296 57.6623C104.301 57.8328 102.12 56.655 100.597 54.0453C99.9719 52.9732 99.8883 52.5579 99.8893 50.5243L99.8901 48.2188H83.0877H66.2851V53.0768ZM105.229 48.989C104.707 49.5146 104.465 50.0232 104.465 50.5902C104.465 51.7638 105.691 52.9616 106.893 52.9616C108.156 52.9616 109.172 51.9047 109.172 50.5902C109.172 48.4148 106.768 47.4386 105.229 48.989ZM114.829 48.9133C112.679 51.0805 115.671 54.3294 117.977 52.3308C119.578 50.9435 118.522 48.2188 116.384 48.2188C115.798 48.2188 115.297 48.443 114.829 48.9133ZM88.9817 53.3592C88.4927 53.634 87.8251 54.6598 86.8243 56.6745C85.2647 59.8137 85.1703 60.2305 85.7592 61.3778C86.2626 62.359 87.3322 62.735 88.5181 62.3474C89.3178 62.0863 89.5968 61.7156 90.9221 59.1536C91.8151 57.4278 92.4244 55.9148 92.4286 55.4137C92.4425 53.6891 90.4783 52.5182 88.9817 53.3592Z" fill="#00AACB"/>
</g>
<defs>
<filter id="filter0_d_186_25264" x="0" y="0" width="142" height="102" filterUnits="userSpaceOnUse" color-interpolation-filters="sRGB">
<feFlood flood-opacity="0" result="BackgroundImageFix"/>
<feColorMatrix in="SourceAlpha" type="matrix" values="0 0 0 0 0 0 0 0 0 0 0 0 0 0 0 0 0 0 127 0" result="hardAlpha"/>
<feOffset dy="4"/>
<feGaussianBlur stdDeviation="2"/>
<feComposite in2="hardAlpha" operator="out"/>
<feColorMatrix type="matrix" values="0 0 0 0 0 0 0 0 0 0 0 0 0 0 0 0 0 0 0.25 0"/>
<feBlend mode="normal" in2="BackgroundImageFix" result="effect1_dropShadow_186_25264"/>
<feBlend mode="normal" in="SourceGraphic" in2="effect1_dropShadow_186_25264" result="shape"/>
</filter>
</defs>
</svg>

<svg xmlns="http://www.w3.org/2000/svg" width="142" height="102" fill="none" viewBox="0 0 142 102"><g filter="url(#a)"><path fill="#00aacb" fill-rule="evenodd" d="M49.549 2.371v2.372h40.533V0H49.549zm45.24 0v2.372h7.387l-.169-.852C101.526 1.466 99.465 0 96.537 0h-1.748zm-77.274.39c-5.326 1.184-9.478 4.45-11.795 9.277-3.977 8.287-.497 18.282 7.765 22.308 2.943 1.434 5.143 1.873 8.449 1.685 4.19-.239 7.418-1.715 10.501-4.804 5.326-5.337 6.577-12.862 3.246-19.532-3.382-6.772-11.01-10.523-18.166-8.933m-.01 5.005c-4.006 1.276-7.15 4.54-8.216 8.528-.166.621-.302 2.02-.302 3.11 0 7.227 6.476 12.805 13.562 11.682 9.668-1.533 13.475-13.333 6.551-20.31-1.352-1.361-3.132-2.407-5.152-3.025-1.471-.45-5.01-.442-6.442.015M54.434 9.66c-.097.098-.177 1.227-.177 2.508v2.33l11.964-.068 11.963-.069V9.617L66.398 9.55c-6.483-.038-11.867.011-11.964.11m-36.07 2.822c-2.868 1.078-4.637 3.659-4.632 6.754.009 4.626 3.956 7.954 8.425 7.102 2.738-.521 5.16-2.98 5.638-5.724.554-3.175-.959-6.315-3.742-7.767-1.333-.695-4.304-.886-5.69-.365m23.76 8.912c-.457 5.523-3.508 11.194-7.926 14.731-2.977 2.384-5.737 3.605-10.34 4.575-.669.141-.72.245-.72 1.465v1.312h49.04c51.61 0 50.301.028 51.019-1.093.125-.196.288-3.143.362-6.548.152-6.969.323-7.71 2.202-9.549 1.793-1.755 2.358-1.904 7.567-1.996l4.673-.083-.152-.942c-.227-1.411-1.292-2.837-2.591-3.471l-1.146-.56H42.302zm8.95 3.382c-1.709.91-2.68 2.959-2.325 4.903.103.56.91 2.442 1.795 4.18 1.245 2.45 1.825 3.31 2.575 3.821l.968.659 17.774.071c17.637.07 17.782.067 18.916-.486 1.547-.755 2.55-2.456 2.523-4.28-.016-1.061-.333-1.949-1.636-4.585-1.437-2.909-1.748-3.355-2.826-4.043l-1.211-.774-17.797.012c-17.09.011-17.834.032-18.755.522m44.62.113c-1.114 1.121-.898 2.006 1.828 7.494 2.576 5.187 3.264 6.088 4.645 6.088.968 0 2.299-1.273 2.299-2.197 0-.943-5.067-11.096-5.793-11.609-.903-.637-2.224-.538-2.98.224m9.449.164c-.373.446-.677 1.087-.677 1.426 0 .822 4.801 10.53 5.612 11.347 1.379 1.39 3.802.38 3.802-1.585 0-1.164-4.959-11.307-5.732-11.724-1.03-.555-2.281-.332-3.005.536m-51.67 4.06c0 .07.496 1.137 1.104 2.371l1.104 2.244h16.417c9.028 0 16.416-.058 16.416-.128s-.497-1.137-1.105-2.371l-1.104-2.244H69.888c-9.03 0-16.417.057-16.417.128m75.71.501c-.833.84-.907 1.446-.984 8.158l-.067 5.757 1.768-.1c1.505-.086 1.874-.208 2.484-.823l.716-.722V30.256l-.734-.636c-.98-.85-2.343-.853-3.183-.007M23.04 48.812c-.086.326-.159 1.082-.16 1.68-.008 2.048-1.101 7.608-2.104 10.687a42 42 0 0 1-4.894 10.199c-1.9 2.873-6.823 7.861-9.7 9.829L4 82.698l1.709 1.722c4.318 4.351 10.632 7.87 16.537 9.217L23.84 94l1.567-2.009c8.42-10.79 13.624-25.397 14.375-40.348l.172-3.424h-7.062l-.172 2.832c-.689 11.391-5.658 23.554-13.551 33.17-2.18 2.654-3.168 3.034-4.641 1.785-.588-.498-.805-.907-.804-1.515.002-.976.339-1.535 2.593-4.304C20.962 74.48 24.759 66.834 26.5 59.68c.613-2.515 1.256-6.6 1.485-9.42l.165-2.042h-2.476c-2.347 0-2.484.03-2.634.593m21.451 3.162c-.092 2.065-.244 4.26-.336 4.878l-.168 1.123 8.73-.07 8.73-.069.072-4.808.07-4.81H50.505l.579.622c.318.341.647 1.047.731 1.568.131.813.039 1.063-.644 1.751-.858.864-1.846 1.026-2.842.464-.742-.42-2.037-2.079-2.625-3.366-.817-1.785-1.03-1.306-1.212 2.717m21.794 1.103v4.858l4.642.089c2.553.048 4.822.178 5.043.286.313.154.63-.273 1.429-1.923.565-1.167 1.286-2.367 1.603-2.667.85-.805 2.297-.77 3.138.078 1.047 1.055.896 2.087-.793 5.415-1.27 2.502-1.433 2.989-1.223 3.653.134.422.316 1.313.404 1.98.173 1.306.851 2.251 1.781 2.481.32.08 10.76.11 23.202.07l22.62-.075 1.45-.686c2.46-1.162 4.318-3.173 5.135-5.558.288-.841 2.698-12.252 2.698-12.777 0-.045-3.15-.082-6.999-.082h-6.999l.004 2.174c.004 2.298-.5 3.754-1.786 5.163-1.842 2.017-5.379 2.74-7.954 1.624-.745-.323-1.482-.743-1.639-.933-.229-.279-.543-.184-1.608.483-1.074.673-1.666.849-3.137.932-2.995.17-5.176-1.007-6.699-3.617-.625-1.072-.709-1.487-.708-3.52l.001-2.306H66.285zm38.944-4.088c-.522.526-.764 1.034-.764 1.601 0 1.174 1.226 2.372 2.428 2.372 1.263 0 2.279-1.057 2.279-2.372 0-2.175-2.404-3.151-3.943-1.601m9.6-.076c-2.15 2.168.842 5.416 3.148 3.418 1.601-1.388.545-4.112-1.593-4.112-.586 0-1.087.224-1.555.694M88.982 53.36c-.49.275-1.157 1.3-2.158 3.316-1.56 3.139-1.654 3.556-1.065 4.703.504.981 1.573 1.357 2.76.97.799-.262 1.078-.632 2.403-3.194.893-1.726 1.502-3.24 1.507-3.74.013-1.725-1.95-2.896-3.447-2.055" clip-rule="evenodd"/></g><defs><filter id="a" width="142" height="102" x="0" y="0" color-interpolation-filters="sRGB" filterUnits="userSpaceOnUse"><feFlood flood-opacity="0" result="BackgroundImageFix"/><feColorMatrix in="SourceAlpha" result="hardAlpha" values="0 0 0 0 0 0 0 0 0 0 0 0 0 0 0 0 0 0 127 0"/><feOffset dy="4"/><feGaussianBlur stdDeviation="2"/><feComposite in2="hardAlpha" operator="out"/><feColorMatrix values="0 0 0 0 0 0 0 0 0 0 0 0 0 0 0 0 0 0 0.25 0"/><feBlend in2="BackgroundImageFix" result="effect1_dropShadow_186_25264"/><feBlend in="SourceGraphic" in2="effect1_dropShadow_186_25264" result="shape"/></filter></defs></svg>
